svg/color/ddim.svg

<?xml version="1.0" encoding="UTF-8" ?>
<!DOCTYPE svg PUBLIC "-//W3C//DTD SVG 1.1//EN" "http://www.w3.org/Graphics/SVG/1.1/DTD/svg11.dtd">
<svg width="250pt" height="250pt" viewBox="0 0 250 250" version="1.1" xmlns="http://www.w3.org/2000/svg">
<g id="#ffffffff">
<path fill="#ffffff" opacity="1.00" d=" M 0.00 0.00 L 250.00 0.00 L 250.00 250.00 L 0.00 250.00 L 0.00 0.00 M 114.56 4.98 C 82.14 7.86 51.32 24.65 31.23 50.25 C 14.49 71.29 5.11 98.08 5.29 124.99 C 5.10 153.55 15.67 181.99 34.41 203.55 C 52.55 224.80 78.34 239.38 105.93 243.87 C 130.63 248.03 156.63 244.29 179.07 233.11 C 206.74 219.56 228.78 194.96 239.15 165.94 C 248.19 141.10 248.68 113.29 240.55 88.14 C 232.05 61.38 213.76 37.93 190.01 23.00 C 167.77 8.84 140.78 2.51 114.56 4.98 Z" />
<path fill="#ffffff" opacity="1.00" d=" M 104.23 76.30 C 110.44 65.54 123.63 59.25 135.88 61.68 C 147.12 64.31 155.99 73.49 160.10 84.04 C 164.06 83.04 167.58 80.89 171.41 79.56 C 173.76 78.53 176.80 80.35 176.79 82.95 C 177.19 87.09 175.28 90.97 172.67 94.06 C 175.09 95.21 176.63 97.92 175.29 100.51 C 171.64 106.05 164.21 106.70 158.17 106.30 C 156.51 108.43 152.16 111.70 155.46 114.25 C 169.21 119.19 179.02 133.35 178.55 147.99 C 178.41 156.89 173.63 165.36 166.53 170.62 C 157.48 177.48 146.03 180.16 134.91 181.23 C 117.63 182.78 99.67 180.68 83.95 173.01 C 73.88 168.10 64.76 160.13 60.65 149.48 C 55.94 137.24 57.45 122.10 66.65 112.28 C 76.78 124.29 93.78 129.18 108.99 126.47 C 112.89 126.11 114.93 120.60 112.19 117.80 C 109.90 115.44 107.29 113.35 105.50 110.55 C 98.37 100.68 97.87 86.67 104.23 76.30 M 144.32 74.33 C 143.44 79.22 146.68 84.15 151.07 86.11 C 153.05 87.33 154.34 84.64 153.76 82.99 C 152.91 78.71 149.31 73.38 144.32 74.33 Z" />
</g>
<g id="#eaa422ff">
<path fill="#eaa422" opacity="1.00" d=" M 114.56 4.98 C 140.78 2.51 167.77 8.84 190.01 23.00 C 213.76 37.93 232.05 61.38 240.55 88.14 C 248.68 113.29 248.19 141.10 239.15 165.94 C 228.78 194.96 206.74 219.56 179.07 233.11 C 156.63 244.29 130.63 248.03 105.93 243.87 C 78.34 239.38 52.55 224.80 34.41 203.55 C 15.67 181.99 5.10 153.55 5.29 124.99 C 5.11 98.08 14.49 71.29 31.23 50.25 C 51.32 24.65 82.14 7.86 114.56 4.98 M 104.23 76.30 C 97.87 86.67 98.37 100.68 105.50 110.55 C 107.29 113.35 109.90 115.44 112.19 117.80 C 114.93 120.60 112.89 126.11 108.99 126.47 C 93.78 129.18 76.78 124.29 66.65 112.28 C 57.45 122.10 55.94 137.24 60.65 149.48 C 64.76 160.13 73.88 168.10 83.95 173.01 C 99.67 180.68 117.63 182.78 134.91 181.23 C 146.03 180.16 157.48 177.48 166.53 170.62 C 173.63 165.36 178.41 156.89 178.55 147.99 C 179.02 133.35 169.21 119.19 155.46 114.25 C 152.16 111.70 156.51 108.43 158.17 106.30 C 164.21 106.70 171.64 106.05 175.29 100.51 C 176.63 97.92 175.09 95.21 172.67 94.06 C 175.28 90.97 177.19 87.09 176.79 82.95 C 176.80 80.35 173.76 78.53 171.41 79.56 C 167.58 80.89 164.06 83.04 160.10 84.04 C 155.99 73.49 147.12 64.31 135.88 61.68 C 123.63 59.25 110.44 65.54 104.23 76.30 Z" />
<path fill="#eaa422" opacity="1.00" d=" M 144.32 74.33 C 149.31 73.38 152.91 78.71 153.76 82.99 C 154.34 84.64 153.05 87.33 151.07 86.11 C 146.68 84.15 143.44 79.22 144.32 74.33 Z" />
</g>
</svg>

<?xml version="1.0" encoding="utf-8"?>
<!-- Generator: Adobe Illustrator 26.0.3, SVG Export Plug-In . SVG Version: 6.00 Build 0)  -->
<svg version="1.1" id="Layer_1" xmlns="http://www.w3.org/2000/svg" xmlns:xlink="http://www.w3.org/1999/xlink" x="0px" y="0px"
	 viewBox="0 0 250 250" style="enable-background:new 0 0 250 250;" xml:space="preserve">
<style type="text/css">
	.st0{fill:#FFFFFF;}
	.st1{fill:#EAA422;}
</style>
<g id="_x23_ffffffff">
	<path class="st0" d="M104.2,76.3c6.2-10.8,19.4-17.1,31.7-14.6c11.2,2.6,20.1,11.8,24.2,22.4c4-1,7.5-3.2,11.3-4.5
		c2.3-1,5.4,0.8,5.4,3.4c0.4,4.1-1.5,8-4.1,11.1c2.4,1.2,4,3.9,2.6,6.5c-3.6,5.5-11.1,6.2-17.1,5.8c-1.7,2.1-6,5.4-2.7,7.9
		c13.8,4.9,23.6,19.1,23.1,33.7c-0.1,8.9-4.9,17.4-12,22.6c-9.1,6.9-20.5,9.5-31.6,10.6c-17.3,1.6-35.2-0.6-51-8.2
		c-10.1-4.9-19.2-12.9-23.3-23.5c-4.7-12.2-3.2-27.4,6-37.2c10.1,12,27.1,16.9,42.3,14.2c3.9-0.4,5.9-5.9,3.2-8.7
		c-2.3-2.4-4.9-4.5-6.7-7.2C98.4,100.7,97.9,86.7,104.2,76.3 M144.3,74.3c-0.9,4.9,2.4,9.8,6.8,11.8c2,1.2,3.3-1.5,2.7-3.1
		C152.9,78.7,149.3,73.4,144.3,74.3z"/>
</g>
<g id="_x23_eaa422ff">
	<path class="st1" d="M114.6,5c26.2-2.5,53.2,3.9,75.4,18c23.8,14.9,42,38.4,50.5,65.1c8.1,25.2,7.6,53-1.4,77.8
		c-10.4,29-32.4,53.6-60.1,67.2c-22.4,11.2-48.4,14.9-73.1,10.8c-27.6-4.5-53.4-19.1-71.5-40.3C15.7,182,5.1,153.6,5.3,125
		c-0.2-26.9,9.2-53.7,25.9-74.7C51.3,24.6,82.1,7.9,114.6,5 M104.2,76.3c-6.4,10.4-5.9,24.4,1.3,34.2c1.8,2.8,4.4,4.9,6.7,7.2
		c2.7,2.8,0.7,8.3-3.2,8.7c-15.2,2.7-32.2-2.2-42.3-14.2c-9.2,9.8-10.7,25-6,37.2c4.1,10.7,13.2,18.6,23.3,23.5
		c15.7,7.7,33.7,9.8,51,8.2c11.1-1.1,22.6-3.8,31.6-10.6c7.1-5.3,11.9-13.7,12-22.6c0.5-14.6-9.3-28.8-23.1-33.7
		c-3.3-2.6,1-5.8,2.7-7.9c6,0.4,13.5-0.2,17.1-5.8c1.3-2.6-0.2-5.3-2.6-6.5c2.6-3.1,4.5-7,4.1-11.1c0-2.6-3-4.4-5.4-3.4
		c-3.8,1.3-7.4,3.5-11.3,4.5c-4.1-10.6-13-19.7-24.2-22.4C123.6,59.2,110.4,65.5,104.2,76.3z"/>
	<path class="st1" d="M144.3,74.3c5-1,8.6,4.4,9.4,8.7c0.6,1.7-0.7,4.3-2.7,3.1C146.7,84.2,143.4,79.2,144.3,74.3z"/>
</g>
</svg>
